X:1
T: The Hibernian Jig
C:
R:Jig
Q:180
K:Em
M:6/8
L:1/16
D2|D2B,2D2 D2B,2D2|D2B,2D2 D4G2|E2G2E2 E2D2E2|G2A2B2 B4A2|A2B2d2 efg2e2|d2B2A2 G2A2B2|B2e2d2 B2A2B2|G2E2D2 E4D2|
D2B,2D2 D2B,2D2|D2B,2D2 D4G2|E2G2E2 E2D2E2|G2A2B2 B4A2|A2B2d2 efg2e2|d2B2A2 G2A2B2|B2e2d2 B2A2B2|G2E2D2 E4d2|
d2e2d2 d2B2d2|e2g2e2 e4d2|d2B2d2 e2d2c2|B4A2 G4d2|g2e2d2 e2d2B2|d2B2A2 B4G2|A2B2d2 e2d2e2|G2E2E2 E4d2|
d2e2d2 d2B2d2|e2g2e2 e4d2|d2B2d2 e2d2c2|B4A2 G4d2|g2e2d2 e2d2B2|d2B2A2 B4G2|A2B2d2 e2d2e2|G2E2E2 E4||
